dist/assets/img/icons/managers.svg

<svg width="46" height="46" viewBox="0 0 46 46" xmlns="http://www.w3.org/2000/svg"><title>users-48px-outline_network</title><g transform="translate(1 1)" stroke-width="2" fill="none" fill-rule="evenodd"><path d="M37 16l-4 4M7 16l4 4M22 8v6" stroke="#5BE5A3"/><path d="M16.9 34.2L10.4 37C9 37.6 8 39 8 40.6V44h28v-3.4c0-1.6-1-3-2.4-3.7l-6.5-2.8" stroke="#000"/><circle stroke="#5BE5A3" cx="22" cy="4" r="4"/><circle stroke="#5BE5A3" cx="40" cy="13" r="4"/><circle stroke="#5BE5A3" cx="4" cy="13" r="4"/><path d="M22 36c-4.4 0-8-3.6-8-8v-2c0-4.4 3.6-8 8-8s8 3.6 8 8v2c0 4.4-3.6 8-8 8z" stroke="#000"/></g></svg>

<?xml version="1.0" encoding="UTF-8" standalone="no"?>
<svg width="46px" height="46px" viewBox="0 0 46 46" version="1.1" xmlns="http://www.w3.org/2000/svg" xmlns:xlink="http://www.w3.org/1999/xlink">
    <!-- Generator: Sketch 3.8.3 (29802) - http://www.bohemiancoding.com/sketch -->
    <title>users-48px-outline_network</title>
    <desc>Created with Sketch.</desc>
    <defs></defs>
    <g id="Page-1" stroke="none" stroke-width="1" fill="none" fill-rule="evenodd">
        <g id="Landing-Writers" transform="translate(-736.000000, -3137.000000)" stroke-width="2">
            <g id="users-48px-outline_network" transform="translate(737.000000, 3138.000000)">
                <g id="Group">
                    <path d="M37,16 L33,20" id="Shape" stroke="#5BE5A3"></path>
                    <path d="M7,16 L11,20" id="Shape" stroke="#5BE5A3"></path>
                    <path d="M22,8 L22,14" id="Shape" stroke="#5BE5A3"></path>
                    <path d="M16.9,34.2 L10.4,37 C9,37.6 8,39 8,40.6 L8,44 L36,44 L36,40.6 C36,39 35,37.6 33.6,36.9 L27.1,34.1" id="Shape" stroke="#000000"></path>
                    <circle id="Oval" stroke="#5BE5A3" cx="22" cy="4" r="4"></circle>
                    <circle id="Oval" stroke="#5BE5A3" cx="40" cy="13" r="4"></circle>
                    <circle id="Oval" stroke="#5BE5A3" cx="4" cy="13" r="4"></circle>
                    <path d="M22,36 L22,36 C17.6,36 14,32.4 14,28 L14,26 C14,21.6 17.6,18 22,18 L22,18 C26.4,18 30,21.6 30,26 L30,28 C30,32.4 26.4,36 22,36 L22,36 Z" id="Shape" stroke="#000000"></path>
                </g>
            </g>
        </g>
    </g>
</svg>
